X:1011
T:Away to the Maypole
T:All Around The Maypole, How They Trot
R:March
C:Trad.
O:England
Z:Paul Hardy's Session Tunebook 2015 (see www.paulhardy.net). Creative Commons cc by-nc-sa licenced.
M:2/2
L:1/8
Q:1/2=70
K:D
"D"DEFGA2A2|"G"d2d2B4|"D"A2z2F2z2|"A"EDEF"D"D4|"D"DEFGA2A2|"G"d2d2B4|"D"A2z2F2z2|"A"EDEF"D"D4||
"D"ddddD2D2|ddddD4|dddd "A"cccc|BABc A4|"D"DEFGA2A2|"G"d2d2B4|"D"A2z2F2z2|"A"EDEF"D"D4|]

